components/AnnouncementBar/logos/color-hpe.svg

<svg width="267" height="89" viewBox="0 0 267 89" fill="none" xmlns="http://www.w3.org/2000/svg">
<path d="M99.271 16.8155H35.6032V5.0124H99.271V16.8155ZM103.819 0.464661H31.0549V21.361H103.819V0.464661Z" fill="#00B188"/>
<path d="M35.6032 55.8979H31.0549L31.0549 35.0016H35.6032V43.2592H43.7296V35.0016H48.2779V55.8979H43.7296V47.2381H35.6032V55.8979Z" fill="#231F20"/>
<path d="M55.166 46.7364H60.5836C60.4827 45.1996 59.8484 44.1285 58.0752 44.1285C56.7374 44.1285 55.5668 44.6979 55.166 46.7364ZM58.61 56.2324C53.9954 56.2324 50.8527 53.3232 50.8527 48.5442C50.8527 43.895 53.9291 40.6859 58.0089 40.6859C62.4563 40.6859 64.6634 43.6614 64.6634 48.1088V49.7811H55.166C55.7023 52.0863 57.5072 52.6874 59.3136 52.6874C60.8849 52.6874 62.0209 52.3544 63.4251 51.4837H63.5937V54.9277C62.39 55.7984 60.6831 56.2324 58.61 56.2324Z" fill="#231F20"/>
<path d="M76.5337 47.1386L74.1925 55.8979H70.2137L65.6653 41.1861V41.0189H70.0133L72.4871 49.8128L74.8283 41.0189H78.3732L80.7476 49.8128L83.256 41.0189H87.4367V41.1861L82.8884 55.8979H78.9081L76.5337 47.1386Z" fill="#231F20"/>
<path d="M94.825 56.2324C91.2138 56.2324 89.7419 54.7951 89.7419 51.4188V35.003H94.1561V51.1175C94.1561 52.154 94.5569 52.5216 95.4262 52.5216C95.7275 52.5216 96.1629 52.4222 96.4296 52.3212H96.4973V55.9657C96.1297 56.0983 95.4939 56.2324 94.825 56.2324Z" fill="#231F20"/>
<path d="M102.049 46.7364H107.467C107.366 45.1996 106.731 44.1285 104.958 44.1285C103.622 44.1285 102.45 44.6979 102.049 46.7364ZM105.493 56.2324C100.878 56.2324 97.7357 53.3232 97.7357 48.5442C97.7357 43.895 100.812 40.6859 104.892 40.6859C109.339 40.6859 111.546 43.6614 111.546 48.1088V49.7811H102.049C102.584 52.0863 104.39 52.6874 106.195 52.6874C107.768 52.6874 108.904 52.3544 110.309 51.4837H110.477V54.9277C109.273 55.7984 107.568 56.2324 105.493 56.2324Z" fill="#231F20"/>
<path d="M129.67 41.019H132.947V44.5625H129.67V50.6144C129.67 51.9191 130.172 52.5217 131.51 52.5217C131.878 52.5217 132.346 52.4871 132.848 52.3198H132.947V55.797C132.379 55.9989 131.51 56.231 130.24 56.231C126.66 56.231 125.256 54.5933 125.256 50.8148V44.5625H119.605V50.6144C119.605 51.9191 120.107 52.5217 121.443 52.5217C121.812 52.5217 122.281 52.4871 122.782 52.3198H122.882V55.797C122.314 55.9989 121.443 56.231 120.175 56.231C116.595 56.231 115.191 54.5933 115.191 50.8148V44.5625H112.916V41.019H115.191V36.9406H119.605V41.019H125.256V36.9406H129.67V41.019Z" fill="#231F20"/>
<path d="M147.82 45.2659C150.13 45.2659 151.231 43.9627 151.231 42.09C151.231 40.1496 150.13 38.8464 147.82 38.8464H144.944V45.2659H147.82ZM155.847 42.09C155.847 46.6383 152.804 49.1107 148.188 49.1107H144.944V55.8979H140.399V35.0016H148.188C152.804 35.0016 155.847 37.4754 155.847 42.09Z" fill="#231F20"/>
<path d="M165.544 51.217V49.9469C164.875 49.5807 164.007 49.4467 163.103 49.4467C161.666 49.4467 160.797 49.9801 160.797 51.1838C160.797 52.4222 161.666 52.957 162.969 52.957C164.206 52.957 165.143 52.3213 165.544 51.217ZM165.678 54.4275C164.708 55.5981 163.272 56.1661 161.731 56.1661C158.823 56.1661 156.447 54.3958 156.447 51.2501C156.447 48.3424 158.823 46.4034 162.232 46.4034C163.302 46.4034 164.408 46.5706 165.544 46.9037V46.6384C165.544 45.0324 164.641 44.3318 162.268 44.3318C160.762 44.3318 159.325 44.7643 158.086 45.4678H157.921V41.9229C159.057 41.2554 161.065 40.6859 163.035 40.6859C167.517 40.6859 169.958 42.8253 169.958 46.5706V55.8979H165.678V54.4275Z" fill="#231F20"/>
<path d="M172.198 48.4764C172.198 43.6946 175.577 40.6859 179.992 40.6859C181.563 40.6859 183.034 41.0204 184.138 41.8219V45.6004H183.969C182.999 44.8652 181.863 44.4298 180.56 44.4298C178.353 44.4298 176.68 45.9363 176.68 48.4764C176.68 51.0166 178.353 52.4885 180.56 52.4885C181.863 52.4885 182.999 52.0531 183.969 51.3164H184.138V55.0949C183.034 55.8979 181.563 56.2324 179.992 56.2324C175.577 56.2324 172.198 53.2583 172.198 48.4764Z" fill="#231F20"/>
<path d="M191.326 49.1453V55.8979H186.913V35.0016H191.326V46.9036L195.775 41.0189H200.79V41.1861L195.44 47.9401L200.79 55.7307V55.8979H195.74L191.326 49.1453Z" fill="#231F20"/>
<path d="M210.688 51.217V49.9469C210.021 49.5807 209.15 49.4467 208.248 49.4467C206.81 49.4467 205.941 49.9801 205.941 51.1838C205.941 52.4222 206.81 52.957 208.112 52.957C209.352 52.957 210.287 52.3213 210.688 51.217ZM210.822 54.4275C209.852 55.5981 208.413 56.1661 206.877 56.1661C203.966 56.1661 201.593 54.3958 201.593 51.2501C201.593 48.3424 203.966 46.4034 207.38 46.4034C208.449 46.4034 209.551 46.5706 210.688 46.9037V46.6384C210.688 45.0324 209.786 44.3318 207.411 44.3318C205.908 44.3318 204.468 44.7643 203.231 45.4678H203.063V41.9229C204.201 41.2554 206.208 40.6859 208.18 40.6859C212.663 40.6859 215.104 42.8253 215.104 46.5706V55.8979H210.822V54.4275Z" fill="#231F20"/>
<path d="M222.527 43.4264C223.328 41.7873 224.5 40.8517 226.139 40.8517C226.741 40.8517 227.342 40.9857 227.574 41.1198V45.3322H227.408C226.906 45.1304 226.305 44.9978 225.469 44.9978C224.098 44.9978 223.028 45.8008 222.659 47.3375V55.8979H218.247V41.0189H222.527V43.4264Z" fill="#231F20"/>
<path d="M239.28 50.8493V46.0675C238.545 44.9978 237.576 44.5307 236.47 44.5307C234.533 44.5307 233.228 45.9363 233.228 48.4764C233.228 51.0166 234.533 52.3876 236.47 52.3876C237.576 52.3876 238.545 51.919 239.28 50.8493ZM239.413 54.3611C238.477 55.5649 237.005 56.2324 235 56.2324C231.187 56.2324 228.746 52.7566 228.746 48.4764C228.746 44.1963 231.187 40.6859 235 40.6859C236.939 40.6859 238.343 41.2885 239.28 42.3913V35.003H243.694V55.8979H239.413V54.3611Z" fill="#231F20"/>
<path d="M31.0549 62.7226H43.9632V65.2627H33.9641V71.6476H43.0261V74.1229H33.9641V81.0773H43.9632V83.6174H31.0549L31.0549 62.7226Z" fill="#231F20"/>
<path d="M54.6297 68.6058C57.9397 68.6058 59.7792 70.7798 59.7792 74.355V83.6174H57.0041V74.4228C57.0041 72.5169 56.0339 71.146 53.9277 71.146C52.1891 71.146 50.7172 72.2502 50.2155 73.8202V83.6174H47.4404V68.9071H50.2155V71.0465C51.0848 69.6755 52.5567 68.6058 54.6297 68.6058Z" fill="#231F20"/>
<path d="M67.2382 68.9071H71.0166V71.2814H67.2382V79.2046C67.2382 80.8754 68.1074 81.4449 69.6788 81.4449C70.1127 81.4449 70.5813 81.3786 70.9157 81.2445H71.0166V83.6174C70.6159 83.7846 70.0464 83.9187 69.278 83.9187C65.8326 83.9187 64.463 82.3459 64.463 79.4727V71.2814H61.9214V68.9071H64.463V64.9974H67.2382V68.9071Z" fill="#231F20"/>
<path d="M75.6644 74.8235H82.9879C82.8884 72.651 81.8173 70.9801 79.5438 70.9801C77.4376 70.9801 76.0652 72.5515 75.6644 74.8235ZM80.0455 83.9187C75.7307 83.9187 72.7884 81.0427 72.7884 76.4295C72.7884 71.8148 75.5304 68.6058 79.5107 68.6058C83.5573 68.6058 85.6635 71.515 85.6635 75.8269V77.0984H75.5635C75.8648 80.0739 77.7721 81.5112 80.4131 81.5112C82.0523 81.5112 83.2214 81.1436 84.5261 80.1734H84.627V82.6155C83.4232 83.5511 81.8504 83.9187 80.0455 83.9187Z" fill="#231F20"/>
<path d="M91.7155 71.1806C92.3512 69.6092 93.7568 68.6736 95.3599 68.6736C95.9971 68.6736 96.5651 68.773 96.7986 68.9071V71.6476H96.6991C96.2969 71.4487 95.628 71.3478 94.9591 71.3478C93.4555 71.3478 92.184 72.3497 91.7155 74.022V83.6174H88.9403V68.9071H91.7155V71.1806Z" fill="#231F20"/>
<path d="M105.76 81.4103C108.502 81.4103 110.108 79.2377 110.108 76.2608C110.108 73.3199 108.502 71.1142 105.76 71.1142C104.255 71.1142 102.851 72.0167 102.115 73.4525V79.1051C102.851 80.541 104.255 81.4103 105.76 81.4103ZM106.228 68.6058C110.608 68.6058 112.949 72.1839 112.949 76.2608C112.949 80.342 110.608 83.9187 106.228 83.9187C104.422 83.9187 102.884 82.9831 102.115 81.9783V89.2686H99.3387V68.9071H102.115V70.5779C102.884 69.5414 104.422 68.6058 106.228 68.6058Z" fill="#231F20"/>
<path d="M119.002 71.1806C119.637 69.6092 121.042 68.6736 122.647 68.6736C123.283 68.6736 123.851 68.773 124.084 68.9071V71.6476H123.985C123.584 71.4487 122.915 71.3478 122.246 71.3478C120.741 71.3478 119.471 72.3497 119.002 74.022V83.6174H116.227V68.9071H119.002V71.1806Z" fill="#231F20"/>
<path d="M128.098 62.9561C129.068 62.9561 129.869 63.7245 129.869 64.6947C129.869 65.6649 129.068 66.4333 128.098 66.4333C127.162 66.4333 126.324 65.6649 126.324 64.6947C126.324 63.7245 127.162 62.9561 128.098 62.9561Z" fill="#231F20"/>
<path d="M126.727 83.6174H129.503V68.9071H126.727V83.6174Z" fill="#231F20"/>
<path d="M139.401 75.0253C141.508 75.6928 143.847 76.5621 143.847 79.3704C143.847 82.3805 141.374 83.9187 138.198 83.9187C136.257 83.9187 134.318 83.4502 133.214 82.5809V79.9398H133.348C134.586 81.0758 136.424 81.5775 138.163 81.5775C139.734 81.5775 141.14 80.9749 141.14 79.7048C141.14 78.4016 139.971 78.1003 137.661 77.3319C135.588 76.663 133.282 75.8932 133.282 73.1195C133.282 70.2766 135.621 68.6058 138.598 68.6058C140.337 68.6058 141.875 68.9734 143.112 69.8095V72.4852H143.013C141.81 71.515 140.403 70.9455 138.665 70.9455C136.926 70.9455 135.956 71.7154 135.956 72.7519C135.956 73.9225 137.026 74.2555 139.401 75.0253Z" fill="#231F20"/>
<path d="M149.132 74.8235H156.454C156.355 72.651 155.285 70.9801 153.01 70.9801C150.904 70.9801 149.533 72.5515 149.132 74.8235ZM153.512 83.9187C149.199 83.9187 146.256 81.0427 146.256 76.4295C146.256 71.8148 148.998 68.6058 152.977 68.6058C157.025 68.6058 159.13 71.515 159.13 75.8269V77.0984H149.031C149.333 80.0739 151.239 81.5112 153.88 81.5112C155.52 81.5112 156.689 81.1436 157.993 80.1734H158.094V82.6155C156.891 83.5511 155.318 83.9187 153.512 83.9187Z" fill="#231F20"/>
</svg>

<svg xmlns="http://www.w3.org/2000/svg" width="267" height="89" fill="none" viewBox="0 0 267 89">
  <path fill="#00B188" d="M99.271 16.816H35.603V5.011h63.668v11.803ZM103.819.465H31.055V21.36h72.764V.465Z"/>
  <path fill="#231F20" d="M35.603 55.898h-4.548V35.002h4.548v8.257h8.127v-8.257h4.548v20.896H43.73v-8.66h-8.127v8.66Zm19.563-9.162h5.418c-.101-1.536-.736-2.607-2.509-2.607-1.338 0-2.508.569-2.909 2.607Zm3.444 9.496c-4.615 0-7.757-2.909-7.757-7.688 0-4.649 3.076-7.858 7.156-7.858 4.447 0 6.654 2.975 6.654 7.423v1.672h-9.497c.536 2.305 2.341 2.906 4.148 2.906 1.57 0 2.707-.333 4.111-1.203h.169v3.444c-1.204.87-2.91 1.304-4.984 1.304Zm17.924-9.093-2.342 8.759h-3.978l-4.549-14.712v-.167h4.348l2.474 8.794 2.341-8.794h3.545l2.375 8.794 2.508-8.794h4.18v.167l-4.548 14.712h-3.98l-2.374-8.76Zm18.291 9.093c-3.611 0-5.083-1.437-5.083-4.813V35.003h4.414v16.114c0 1.037.4 1.405 1.27 1.405.302 0 .737-.1 1.004-.2h.067v3.644c-.367.132-1.003.266-1.672.266Zm7.224-9.496h5.418c-.101-1.536-.736-2.607-2.509-2.607-1.336 0-2.508.569-2.909 2.607Zm3.444 9.496c-4.615 0-7.757-2.909-7.757-7.688 0-4.649 3.076-7.858 7.156-7.858 4.447 0 6.654 2.975 6.654 7.423v1.672h-9.497c.535 2.305 2.341 2.906 4.146 2.906 1.573 0 2.709-.333 4.114-1.203h.168v3.444c-1.204.87-2.909 1.304-4.984 1.304Zm24.177-15.213h3.277v3.544h-3.277v6.051c0 1.305.502 1.908 1.84 1.908.368 0 .836-.035 1.338-.202h.099v3.477c-.568.202-1.437.434-2.707.434-3.58 0-4.984-1.638-4.984-5.416v-6.252h-5.651v6.051c0 1.305.502 1.908 1.838 1.908a4.19 4.19 0 0 0 1.339-.202h.1v3.477c-.568.202-1.439.434-2.707.434-3.58 0-4.984-1.638-4.984-5.416v-6.252h-2.275v-3.544h2.275v-4.078h4.414v4.078h5.651v-4.078h4.414v4.078Zm18.15 4.247c2.31 0 3.411-1.303 3.411-3.176 0-1.94-1.101-3.244-3.411-3.244h-2.876v6.42h2.876Zm8.027-3.176c0 4.548-3.043 7.02-7.659 7.02h-3.244v6.788h-4.545V35.002h7.789c4.616 0 7.659 2.473 7.659 7.088Zm9.697 9.127v-1.27c-.669-.366-1.537-.5-2.441-.5-1.437 0-2.306.533-2.306 1.737 0 1.238.869 1.773 2.172 1.773 1.237 0 2.174-.636 2.575-1.74Zm.134 3.21c-.97 1.171-2.406 1.74-3.947 1.74-2.908 0-5.284-1.771-5.284-4.917 0-2.908 2.376-4.847 5.785-4.847 1.07 0 2.176.168 3.312.5v-.265c0-1.606-.903-2.306-3.276-2.306-1.506 0-2.943.432-4.182 1.136h-.165v-3.545c1.136-.668 3.144-1.237 5.114-1.237 4.482 0 6.923 2.14 6.923 5.885v9.327h-4.28v-1.47Zm6.52-5.951c0-4.781 3.379-7.79 7.794-7.79 1.571 0 3.042.334 4.146 1.136V45.6h-.169c-.97-.735-2.106-1.17-3.409-1.17-2.207 0-3.88 1.506-3.88 4.046s1.673 4.013 3.88 4.013c1.303 0 2.439-.436 3.409-1.173h.169v3.779c-1.104.803-2.575 1.137-4.146 1.137-4.415 0-7.794-2.974-7.794-7.756Zm19.128.669v6.753h-4.413V35.002h4.413v11.902l4.449-5.885h5.015v.167l-5.35 6.754 5.35 7.79v.168h-5.05l-4.414-6.753Zm19.362 2.072v-1.27c-.667-.366-1.538-.5-2.44-.5-1.438 0-2.307.533-2.307 1.737 0 1.238.869 1.773 2.171 1.773 1.24 0 2.175-.636 2.576-1.74Zm.134 3.21c-.97 1.171-2.409 1.74-3.945 1.74-2.911 0-5.284-1.771-5.284-4.917 0-2.908 2.373-4.847 5.787-4.847 1.069 0 2.171.168 3.308.5v-.265c0-1.606-.902-2.306-3.277-2.306-1.503 0-2.943.432-4.18 1.136h-.168v-3.545c1.138-.668 3.145-1.237 5.117-1.237 4.483 0 6.924 2.14 6.924 5.885v9.327h-4.282v-1.47Zm11.705-11.001c.801-1.639 1.973-2.574 3.612-2.574.602 0 1.203.134 1.435.268v4.212h-.166c-.502-.202-1.103-.334-1.939-.334-1.371 0-2.441.803-2.81 2.34v8.56h-4.412v-14.88h4.28v2.408Zm16.753 7.424v-4.782c-.735-1.07-1.704-1.537-2.81-1.537-1.937 0-3.242 1.405-3.242 3.945s1.305 3.912 3.242 3.912c1.106 0 2.075-.469 2.81-1.539Zm.133 3.511c-.936 1.204-2.408 1.871-4.413 1.871-3.813 0-6.254-3.475-6.254-7.756 0-4.28 2.441-7.79 6.254-7.79 1.939 0 3.343.602 4.28 1.705v-7.388h4.414v20.895h-4.281V54.36ZM31.055 62.723h12.908v2.54h-9.999v6.385h9.062v2.475h-9.062v6.954h10v2.54h-12.91V62.723Zm23.575 5.883c3.31 0 5.15 2.174 5.15 5.749v9.262h-2.776v-9.194c0-1.906-.97-3.277-3.076-3.277-1.739 0-3.21 1.104-3.712 2.674v9.797H47.44v-14.71h2.776v2.14c.869-1.371 2.34-2.441 4.414-2.441Zm12.608.301h3.779v2.374h-3.779v7.924c0 1.67.87 2.24 2.44 2.24.435 0 .903-.066 1.238-.2h.1v2.372c-.4.168-.97.302-1.738.302-3.445 0-4.815-1.573-4.815-4.446V71.28h-2.542v-2.374h2.542v-3.91h2.775v3.91Zm8.426 5.916h7.324c-.1-2.172-1.17-3.843-3.444-3.843-2.106 0-3.479 1.572-3.88 3.843Zm4.382 9.096c-4.315 0-7.258-2.876-7.258-7.49 0-4.614 2.742-7.823 6.723-7.823 4.046 0 6.153 2.909 6.153 7.22v1.272h-10.1c.3 2.976 2.208 4.413 4.85 4.413 1.638 0 2.807-.367 4.112-1.338h.101v2.442c-1.204.936-2.777 1.304-4.581 1.304Zm11.67-12.739c.635-1.57 2.04-2.506 3.644-2.506.637 0 1.205.099 1.439.233v2.74h-.1c-.402-.198-1.071-.3-1.74-.3-1.504 0-2.775 1.003-3.243 2.675v9.595H88.94v-14.71h2.776v2.274Zm14.044 10.23c2.742 0 4.348-2.172 4.348-5.15 0-2.94-1.606-5.146-4.348-5.146-1.505 0-2.909.903-3.645 2.338v5.653c.736 1.436 2.14 2.305 3.645 2.305Zm.468-12.804c4.38 0 6.721 3.578 6.721 7.655 0 4.081-2.341 7.658-6.721 7.658-1.806 0-3.344-.936-4.113-1.94v7.29h-2.776V68.907h2.776v1.67c.769-1.036 2.307-1.971 4.113-1.971Zm12.774 2.574c.635-1.57 2.04-2.506 3.645-2.506.636 0 1.204.099 1.437.233v2.74h-.099c-.401-.198-1.07-.3-1.739-.3-1.505 0-2.775 1.003-3.244 2.675v9.595h-2.775v-14.71h2.775v2.274Zm9.096-8.224c.97 0 1.771.768 1.771 1.739 0 .97-.801 1.738-1.771 1.738-.936 0-1.774-.768-1.774-1.738s.838-1.739 1.774-1.739Zm-1.371 20.661h2.776v-14.71h-2.776v14.71Zm12.674-8.592c2.107.668 4.446 1.537 4.446 4.345 0 3.01-2.473 4.549-5.649 4.549-1.941 0-3.88-.469-4.984-1.338V79.94h.134c1.238 1.136 3.076 1.638 4.815 1.638 1.571 0 2.977-.603 2.977-1.873 0-1.303-1.169-1.605-3.479-2.373-2.073-.669-4.379-1.439-4.379-4.212 0-2.843 2.339-4.514 5.316-4.514 1.739 0 3.277.367 4.514 1.204v2.675h-.099c-1.203-.97-2.61-1.54-4.348-1.54-1.739 0-2.709.77-2.709 1.807 0 1.17 1.07 1.504 3.445 2.273Zm9.731-.202h7.322c-.099-2.172-1.169-3.843-3.444-3.843-2.106 0-3.477 1.572-3.878 3.843Zm4.38 9.096c-4.313 0-7.256-2.876-7.256-7.49 0-4.614 2.742-7.823 6.721-7.823 4.048 0 6.153 2.909 6.153 7.22v1.272h-10.099c.302 2.976 2.208 4.413 4.849 4.413 1.64 0 2.809-.367 4.113-1.338h.101v2.442c-1.203.936-2.776 1.304-4.582 1.304Z"/>
</svg>
